Newaita-dark/apps/22/media-optical-data-new.svg

<?xml version="1.0" encoding="UTF-8"?>
<svg xmlns="http://www.w3.org/2000/svg" xmlns:xlink="http://www.w3.org/1999/xlink" width="22px" height="22px" viewBox="0 0 22 22" version="1.1">
<defs>
<radialGradient id="radial0" gradientUnits="userSpaceOnUse" cx="450.908936" cy="189.579361" fx="450.908936" fy="189.579361" r="21.166656" gradientTransform="matrix(0.000000119742,-0.0537161,-0.0966889,-0.0000000698078,30.609667,43.721789)">
<stop offset="0" style="stop-color:rgb(0%,0%,0%);stop-opacity:0.313726;"/>
<stop offset="0.222222" style="stop-color:rgb(0%,0%,0%);stop-opacity:0.27451;"/>
<stop offset="1" style="stop-color:rgb(0%,0%,0%);stop-opacity:0;"/>
</radialGradient>
<radialGradient id="radial1" gradientUnits="userSpaceOnUse" cx="450.908936" cy="189.579361" fx="450.908936" fy="189.579361" r="21.166656" gradientTransform="matrix(-0.000000119742,0.0537161,0.0966889,0.0000000698078,-8.779457,-5.175144)">
<stop offset="0" style="stop-color:rgb(0%,0%,0%);stop-opacity:0.313726;"/>
<stop offset="0.222222" style="stop-color:rgb(0%,0%,0%);stop-opacity:0.27451;"/>
<stop offset="1" style="stop-color:rgb(0%,0%,0%);stop-opacity:0;"/>
</radialGradient>
<radialGradient id="radial2" gradientUnits="userSpaceOnUse" cx="450.908936" cy="189.579361" fx="450.908936" fy="189.579361" r="21.166656" gradientTransform="matrix(-0.000000119742,-0.0537161,0.0966889,-0.0000000698078,-8.779457,43.721789)">
<stop offset="0" style="stop-color:rgb(0%,0%,0%);stop-opacity:0.313726;"/>
<stop offset="0.222222" style="stop-color:rgb(0%,0%,0%);stop-opacity:0.27451;"/>
<stop offset="1" style="stop-color:rgb(0%,0%,0%);stop-opacity:0;"/>
</radialGradient>
<radialGradient id="radial3" gradientUnits="userSpaceOnUse" cx="450.908936" cy="189.579361" fx="450.908936" fy="189.579361" r="21.166656" gradientTransform="matrix(0.000000119742,0.0537161,-0.0966889,0.0000000698078,30.609666,-5.175144)">
<stop offset="0" style="stop-color:rgb(0%,0%,0%);stop-opacity:0.313726;"/>
<stop offset="0.222222" style="stop-color:rgb(0%,0%,0%);stop-opacity:0.27451;"/>
<stop offset="1" style="stop-color:rgb(0%,0%,0%);stop-opacity:0;"/>
</radialGradient>
<linearGradient id="linear0" gradientUnits="userSpaceOnUse" x1="255.323059" y1="233.5" x2="255.323044" y2="254.666656" gradientTransform="matrix(0.00918504,0,0,0.0429729,8.569953,9.239164)">
<stop offset="0" style="stop-color:rgb(0%,0%,0%);stop-opacity:0.27451;"/>
<stop offset="1" style="stop-color:rgb(0%,0%,0%);stop-opacity:0;"/>
</linearGradient>
<linearGradient id="linear1" gradientUnits="userSpaceOnUse" x1="254" y1="-168.666672" x2="254" y2="233.5" gradientTransform="matrix(0.0429729,0,0,0.0429729,0,9.239163)">
<stop offset="0" style="stop-color:rgb(87.843138%,87.843138%,87.843138%);stop-opacity:1;"/>
<stop offset="1" style="stop-color:rgb(74.117649%,74.117649%,74.117649%);stop-opacity:1;"/>
</linearGradient>
<linearGradient id="linear2" gradientUnits="userSpaceOnUse" x1="960" y1="1695.118164" x2="960" y2="1315.118164" gradientTransform="matrix(0.0113699,0,0,0.0113699,0,0)">
<stop offset="0" style="stop-color:rgb(100%,43.921569%,26.274511%);stop-opacity:1;"/>
<stop offset="1" style="stop-color:rgb(100%,54.11765%,39.607844%);stop-opacity:1;"/>
</linearGradient>
<linearGradient id="linear3" gradientUnits="userSpaceOnUse" x1="254" y1="117.083344" x2="254" y2="-52.25" gradientTransform="matrix(3.779528,0,0,3.779528,0,812.59845)">
<stop offset="0" style="stop-color:rgb(96.078432%,96.078432%,96.078432%);stop-opacity:1;"/>
<stop offset="1" style="stop-color:rgb(87.843138%,87.843138%,87.843138%);stop-opacity:1;"/>
</linearGradient>
<filter id="alpha" filterUnits="objectBoundingBox" x="0%" y="0%" width="100%" height="100%">
  <feColorMatrix type="matrix" in="SourceGraphic" values="0 0 0 0 1 0 0 0 0 1 0 0 0 0 1 0 0 0 1 0"/>
</filter>
<mask id="mask0">
  <g filter="url(#alpha)">
<rect x="0" y="0" width="22" height="22" style="fill:rgb(0%,0%,0%);fill-opacity:0.99;stroke:none;"/>
  </g>
</mask>
<clipPath id="clip1">
  <rect x="0" y="0" width="22" height="22"/>
</clipPath>
<g id="surface5" clip-path="url(#clip1)">
<path style=" stroke:none;fill-rule:nonzero;fill:rgb(0%,0%,0%);fill-opacity:0.117647;" d="M 10.914062 17 C 11.292969 17 11.597656 17.304688 11.597656 17.679688 C 11.597656 18.058594 11.292969 18.363281 10.914062 18.363281 C 10.539062 18.363281 10.234375 18.058594 10.234375 17.679688 C 10.234375 17.304688 10.539062 17 10.914062 17 Z M 10.914062 17 "/>
</g>
<mask id="mask1">
  <g filter="url(#alpha)">
<rect x="0" y="0" width="22" height="22" style="fill:rgb(0%,0%,0%);fill-opacity:0.99;stroke:none;"/>
  </g>
</mask>
<clipPath id="clip2">
  <rect x="0" y="0" width="22" height="22"/>
</clipPath>
<g id="surface8" clip-path="url(#clip2)">
<path style=" stroke:none;fill-rule:nonzero;fill:rgb(0%,0%,0%);fill-opacity:0.235294;" d="M 10.914062 17 C 10.539062 17 10.234375 17.304688 10.234375 17.679688 C 10.234375 17.71875 10.234375 17.757812 10.242188 17.796875 C 10.296875 17.472656 10.574219 17.226562 10.914062 17.226562 C 11.253906 17.226562 11.535156 17.472656 11.585938 17.796875 C 11.59375 17.757812 11.597656 17.71875 11.597656 17.679688 C 11.597656 17.304688 11.292969 17 10.914062 17 Z M 10.914062 17 "/>
</g>
<mask id="mask2">
  <g filter="url(#alpha)">
<rect x="0" y="0" width="22" height="22" style="fill:rgb(0%,0%,0%);fill-opacity:0.99;stroke:none;"/>
  </g>
</mask>
<clipPath id="clip3">
  <rect x="0" y="0" width="22" height="22"/>
</clipPath>
<g id="surface11" clip-path="url(#clip3)">
<path style=" stroke:none;fill-rule:nonzero;fill:rgb(100%,100%,100%);fill-opacity:0.392157;" d="M 10.914062 18.589844 C 10.539062 18.589844 10.234375 18.285156 10.234375 17.910156 C 10.234375 17.871094 10.234375 17.832031 10.242188 17.796875 C 10.296875 18.117188 10.574219 18.363281 10.914062 18.363281 C 11.253906 18.363281 11.535156 18.117188 11.585938 17.796875 C 11.59375 17.832031 11.597656 17.871094 11.597656 17.910156 C 11.597656 18.285156 11.292969 18.589844 10.914062 18.589844 Z M 10.914062 18.589844 "/>
</g>
<mask id="mask3">
  <g filter="url(#alpha)">
<rect x="0" y="0" width="22" height="22" style="fill:rgb(0%,0%,0%);fill-opacity:0.99;stroke:none;"/>
  </g>
</mask>
<clipPath id="clip4">
  <rect x="0" y="0" width="22" height="22"/>
</clipPath>
<g id="surface14" clip-path="url(#clip4)">
<path style="fill:none;stroke-width:3;stroke-linecap:round;stroke-linejoin:round;stroke:rgb(12.941177%,12.941177%,12.941177%);stroke-opacity:1;stroke-miterlimit:4;" d="M 253.975747 180.598586 C 262.793086 180.598586 269.883318 187.688818 269.883318 196.415257 C 269.883318 205.232597 262.793086 212.322829 253.975747 212.322829 C 245.249307 212.322829 238.159075 205.232597 238.159075 196.415257 C 238.159075 187.688818 245.249307 180.598586 253.975747 180.598586 Z M 253.975747 180.598586 " transform="matrix(0.0429729,0,0,0.0429729,0,9.239163)"/>
</g>
</defs>
<g id="surface1">
<path style=" stroke:none;fill-rule:nonzero;fill:url(#radial0);" d="M 12.507812 19.273438 L 14.324219 19.273438 L 14.324219 18.363281 L 12.507812 18.363281 Z M 12.507812 19.273438 "/>
<path style=" stroke:none;fill-rule:nonzero;fill:url(#radial1);" d="M 9.324219 19.273438 L 7.503906 19.273438 L 7.503906 20.183594 L 9.324219 20.183594 Z M 9.324219 19.273438 "/>
<path style=" stroke:none;fill-rule:nonzero;fill:url(#radial2);" d="M 9.324219 19.273438 L 7.503906 19.273438 L 7.503906 18.363281 L 9.324219 18.363281 Z M 9.324219 19.273438 "/>
<path style=" stroke:none;fill-rule:nonzero;fill:url(#radial3);" d="M 12.507812 19.273438 L 14.324219 19.273438 L 14.324219 20.183594 L 12.507812 20.183594 Z M 12.507812 19.273438 "/>
<path style=" stroke:none;fill-rule:nonzero;fill:url(#linear0);" d="M 9.324219 19.046875 L 12.507812 19.046875 L 12.507812 20.183594 L 9.324219 20.183594 Z M 9.324219 19.046875 "/>
<path style=" stroke:none;fill-rule:nonzero;fill:url(#linear1);" d="M 10.914062 1.992188 C 6.128906 1.992188 2.273438 5.84375 2.273438 10.632812 C 2.273438 15.417969 6.128906 19.273438 10.914062 19.273438 C 15.703125 19.273438 19.554688 15.417969 19.554688 10.632812 C 19.554688 5.84375 15.703125 1.992188 10.914062 1.992188 Z M 10.914062 8.8125 C 11.921875 8.8125 12.734375 9.625 12.734375 10.632812 C 12.734375 11.640625 11.921875 12.453125 10.914062 12.453125 C 9.90625 12.453125 9.097656 11.640625 9.097656 10.632812 C 9.097656 9.625 9.90625 8.8125 10.914062 8.8125 Z M 10.914062 8.8125 "/>
<path style=" stroke:none;fill-rule:nonzero;fill:url(#linear2);" d="M 10.914062 15.519531 C 10.773438 15.519531 10.628906 15.636719 10.460938 15.863281 C 9.890625 16.660156 9.53125 17.117188 9.550781 17.679688 L 9.550781 19.167969 C 9.996094 19.238281 10.449219 19.273438 10.914062 19.273438 C 11.378906 19.273438 11.835938 19.238281 12.28125 19.167969 L 12.28125 17.679688 C 12.28125 17.113281 11.9375 16.660156 11.371094 15.863281 C 11.199219 15.636719 11.058594 15.519531 10.914062 15.519531 Z M 10.914062 15.519531 "/>
<path style=" stroke:none;fill-rule:nonzero;fill:rgb(0%,0%,0%);fill-opacity:0.196078;" d="M 10.914062 19.273438 C 6.128906 19.273438 2.273438 15.417969 2.273438 10.632812 C 2.273438 10.605469 2.273438 10.574219 2.273438 10.546875 C 2.320312 15.296875 6.15625 19.105469 10.914062 19.105469 C 15.675781 19.105469 19.511719 15.296875 19.554688 10.546875 C 19.554688 10.574219 19.554688 10.605469 19.554688 10.632812 C 19.554688 15.417969 15.703125 19.273438 10.914062 19.273438 Z M 10.914062 19.273438 "/>
<path style=" stroke:none;fill-rule:nonzero;fill:rgb(100%,100%,100%);fill-opacity:0.588235;" d="M 10.914062 1.992188 C 6.128906 1.992188 2.273438 5.84375 2.273438 10.632812 C 2.273438 10.660156 2.273438 10.6875 2.273438 10.71875 C 2.320312 5.96875 6.15625 2.160156 10.914062 2.160156 C 15.675781 2.160156 19.511719 5.96875 19.554688 10.71875 C 19.554688 10.6875 19.554688 10.660156 19.554688 10.632812 C 19.554688 5.84375 15.703125 1.992188 10.914062 1.992188 Z M 10.914062 1.992188 "/>
<path style=" stroke:none;fill-rule:nonzero;fill:rgb(12.941177%,12.941177%,12.941177%);fill-opacity:1;" d="M 10.914062 1.925781 C 6.09375 1.925781 2.210938 5.808594 2.210938 10.632812 C 2.210938 15.453125 6.09375 19.335938 10.914062 19.335938 C 15.738281 19.335938 19.621094 15.453125 19.621094 10.632812 C 19.621094 5.808594 15.738281 1.925781 10.914062 1.925781 Z M 10.914062 2.054688 C 15.667969 2.054688 19.492188 5.878906 19.492188 10.632812 C 19.492188 15.382812 15.667969 19.207031 10.914062 19.207031 C 6.164062 19.207031 2.339844 15.382812 2.339844 10.632812 C 2.339844 5.878906 6.164062 2.054688 10.914062 2.054688 Z M 10.914062 2.054688 "/>
<path style=" stroke:none;fill-rule:nonzero;fill:rgb(100%,100%,100%);fill-opacity:0.588235;" d="M 5.105469 4.820312 C 4.617188 5.316406 4.199219 5.871094 3.851562 6.472656 C 3.503906 7.070312 3.234375 7.710938 3.050781 8.378906 L 4.890625 8.871094 C 5.171875 7.851562 5.710938 6.921875 6.453125 6.167969 Z M 6.792969 6.511719 C 6.113281 7.203125 5.617188 8.0625 5.359375 9 L 9.28125 10.050781 C 9.355469 9.800781 9.488281 9.574219 9.664062 9.382812 Z M 12.566406 11.054688 C 12.527344 11.179688 12.476562 11.300781 12.410156 11.410156 C 12.347656 11.523438 12.269531 11.628906 12.179688 11.722656 L 15.054688 14.597656 C 15.734375 13.902344 16.226562 13.046875 16.488281 12.105469 Z M 16.957031 12.234375 C 16.671875 13.253906 16.136719 14.183594 15.394531 14.9375 L 16.742188 16.285156 C 17.226562 15.789062 17.648438 15.234375 17.992188 14.632812 C 18.339844 14.035156 18.609375 13.394531 18.796875 12.726562 Z M 16.957031 12.234375 "/>
<path style="fill-rule:nonzero;fill:url(#linear3);stroke-width:11.338583;stroke-linecap:round;stroke-linejoin:miter;stroke:rgb(20%,20%,20%);stroke-opacity:1;stroke-miterlimit:4;" d="M 959.908384 614.973517 C 782.631102 614.973517 640.053443 757.894737 640.053443 935.172019 C 640.053443 1112.449301 782.631102 1255.02696 959.908384 1255.02696 C 1137.185666 1255.02696 1280.106885 1112.449301 1280.106885 935.172019 C 1280.106885 757.894737 1137.185666 614.973517 959.908384 614.973517 Z M 959.908384 775.072768 C 1048.547025 775.072768 1120.007635 846.533378 1120.007635 935.172019 C 1120.007635 1023.81066 1048.547025 1095.27127 959.908384 1095.27127 C 871.269743 1095.27127 800.152694 1023.81066 800.152694 935.172019 C 800.152694 846.533378 871.269743 775.072768 959.908384 775.072768 Z M 959.908384 775.072768 " transform="matrix(0.0113699,0,0,0.0113699,0,0)"/>
<path style=" stroke:none;fill-rule:nonzero;fill:rgb(100%,100%,100%);fill-opacity:0.392157;" d="M 10.914062 15.519531 C 10.773438 15.519531 10.628906 15.636719 10.460938 15.863281 C 9.890625 16.660156 9.53125 17.117188 9.550781 17.679688 L 9.550781 17.9375 C 9.566406 17.410156 9.921875 16.957031 10.460938 16.203125 C 10.628906 15.976562 10.773438 15.863281 10.914062 15.863281 C 11.058594 15.863281 11.199219 15.976562 11.371094 16.203125 C 11.9375 17 12.28125 17.453125 12.28125 18.023438 L 12.28125 17.679688 C 12.28125 17.113281 11.9375 16.65625 11.371094 15.863281 C 11.199219 15.636719 11.058594 15.519531 10.914062 15.519531 Z M 10.914062 15.519531 "/>
<path style="fill:none;stroke-width:11.338583;stroke-linecap:square;stroke-linejoin:bevel;stroke:rgb(12.941177%,12.941177%,12.941177%);stroke-opacity:1;stroke-miterlimit:4;" d="M 959.908384 1364.96636 C 947.540201 1364.96636 934.828458 1375.273178 920.055351 1395.199695 C 869.8955 1465.286062 838.287923 1505.482655 840.005726 1554.955385 L 840.005726 1685.851983 C 879.171637 1692.036074 919.02467 1695.128119 959.908384 1695.128119 C 1000.792098 1695.128119 1040.988691 1692.036074 1080.154602 1685.851983 L 1080.154602 1554.955385 C 1080.154602 1505.139094 1049.921267 1465.286062 1000.104977 1395.199695 C 984.988309 1375.273178 972.620127 1364.96636 959.908384 1364.96636 Z M 959.908384 1364.96636 " transform="matrix(0.0113699,0,0,0.0113699,0,0)"/>
<path style=" stroke:none;fill-rule:nonzero;fill:rgb(0%,0%,0%);fill-opacity:0.235294;" d="M 9.550781 17.59375 C 9.550781 17.625 9.550781 17.652344 9.550781 17.679688 Z M 9.550781 18.820312 L 9.550781 19.167969 C 9.996094 19.238281 10.449219 19.273438 10.914062 19.273438 C 11.378906 19.273438 11.835938 19.238281 12.28125 19.167969 L 12.28125 18.820312 C 11.835938 18.886719 11.378906 18.925781 10.914062 18.925781 C 10.449219 18.925781 9.996094 18.886719 9.550781 18.820312 Z M 9.550781 18.820312 "/>
<use xlink:href="#surface5" mask="url(#mask0)"/>
<use xlink:href="#surface8" mask="url(#mask1)"/>
<use xlink:href="#surface11" mask="url(#mask2)"/>
<use xlink:href="#surface14" mask="url(#mask3)"/>
</g>
</svg>

<svg xmlns="http://www.w3.org/2000/svg" width="22pt" height="22pt" viewBox="0 0 22 22"><defs><radialGradient id="a" gradientUnits="userSpaceOnUse" cx="450.909" cy="189.579" fx="450.909" fy="189.579" r="21.167" gradientTransform="matrix(0 -.05372 -.09669 0 30.61 43.722)"><stop offset="0" stop-opacity=".314"/><stop offset=".222" stop-opacity=".275"/><stop offset="1" stop-opacity="0"/></radialGradient><radialGradient id="b" gradientUnits="userSpaceOnUse" cx="450.909" cy="189.579" fx="450.909" fy="189.579" r="21.167" gradientTransform="matrix(0 .05372 .09669 0 -8.78 -5.175)"><stop offset="0" stop-opacity=".314"/><stop offset=".222" stop-opacity=".275"/><stop offset="1" stop-opacity="0"/></radialGradient><radialGradient id="c" gradientUnits="userSpaceOnUse" cx="450.909" cy="189.579" fx="450.909" fy="189.579" r="21.167" gradientTransform="matrix(0 -.05372 .09669 0 -8.78 43.722)"><stop offset="0" stop-opacity=".314"/><stop offset=".222" stop-opacity=".275"/><stop offset="1" stop-opacity="0"/></radialGradient><radialGradient id="d" gradientUnits="userSpaceOnUse" cx="450.909" cy="189.579" fx="450.909" fy="189.579" r="21.167" gradientTransform="matrix(0 .05372 -.09669 0 30.61 -5.175)"><stop offset="0" stop-opacity=".314"/><stop offset=".222" stop-opacity=".275"/><stop offset="1" stop-opacity="0"/></radialGradient><linearGradient id="e" gradientUnits="userSpaceOnUse" x1="255.323" y1="233.5" x2="255.323" y2="254.667" gradientTransform="matrix(.00919 0 0 .04297 8.57 9.24)"><stop offset="0" stop-opacity=".275"/><stop offset="1" stop-opacity="0"/></linearGradient><linearGradient id="f" gradientUnits="userSpaceOnUse" x1="254" y1="-168.667" x2="254" y2="233.5" gradientTransform="matrix(.04297 0 0 .04297 0 9.24)"><stop offset="0" stop-color="#e0e0e0"/><stop offset="1" stop-color="#bdbdbd"/></linearGradient><linearGradient id="g" gradientUnits="userSpaceOnUse" x1="960" y1="1695.118" x2="960" y2="1315.118" gradientTransform="rotate(.24) scale(.01137)"><stop offset="0" stop-color="#ff7043"/><stop offset="1" stop-color="#ff8a65"/></linearGradient><linearGradient id="h" gradientUnits="userSpaceOnUse" x1="254" y1="117.083" x2="254" y2="-52.25" gradientTransform="matrix(3.77953 0 0 3.77953 0 812.598)"><stop offset="0" stop-color="#f5f5f5"/><stop offset="1" stop-color="#e0e0e0"/></linearGradient></defs><path d="M12.508 19.273h1.816v-.91h-1.816zm0 0" fill="url(#a)"/><path d="M9.324 19.273h-1.82v.91h1.82zm0 0" fill="url(#b)"/><path d="M9.324 19.273h-1.82v-.91h1.82zm0 0" fill="url(#c)"/><path d="M12.508 19.273h1.816v.91h-1.816zm0 0" fill="url(#d)"/><path d="M9.324 19.047h3.184v1.137H9.324zm0 0" fill="url(#e)"/><path d="M10.914 1.992a8.621 8.621 0 0 0-8.64 8.64 8.624 8.624 0 0 0 8.64 8.641c4.79 0 8.64-3.855 8.64-8.64 0-4.79-3.85-8.64-8.64-8.64zm0 6.82c1.008 0 1.82.813 1.82 1.82 0 1.009-.812 1.821-1.82 1.821a1.814 1.814 0 0 1-1.816-1.82c0-1.008.808-1.82 1.816-1.82zm0 0" fill="url(#f)"/><path d="M10.914 14.84c-.14 0-.285.113-.453.34-.57.797-.93 1.254-.91 1.82v1.82c0 .25.203.453.453.453h1.82a.454.454 0 0 0 .457-.453V17c0-.57-.344-1.023-.91-1.82-.172-.227-.312-.34-.457-.34zm0 0" fill="url(#g)"/><path d="M10.914 19.273a8.624 8.624 0 0 1-8.64-8.64v-.086a8.624 8.624 0 0 0 8.64 8.558 8.62 8.62 0 0 0 8.64-8.558v.086a8.621 8.621 0 0 1-8.64 8.64zm0 0" fill-opacity=".196"/><path d="M10.914 1.992a8.621 8.621 0 0 0-8.64 8.64v.087a8.624 8.624 0 0 1 8.64-8.559 8.62 8.62 0 0 1 8.64 8.559v-.086c0-4.79-3.85-8.64-8.64-8.64zm0 0" fill="#fff" fill-opacity=".588"/><path d="M10.914 1.926a8.686 8.686 0 0 0-8.703 8.707 8.686 8.686 0 0 0 8.703 8.703 8.686 8.686 0 0 0 8.707-8.703 8.687 8.687 0 0 0-8.707-8.707zm0 .129a8.557 8.557 0 0 1 8.578 8.578 8.556 8.556 0 0 1-8.578 8.574 8.556 8.556 0 0 1-8.574-8.574 8.556 8.556 0 0 1 8.574-8.578zm0 0" fill="#212121"/><path d="M5.105 4.82a8.192 8.192 0 0 0-1.253 1.653 8.017 8.017 0 0 0-.801 1.906l1.84.492c.28-1.02.82-1.95 1.562-2.703zm1.688 1.692A5.72 5.72 0 0 0 5.359 9l3.922 1.05c.074-.25.207-.476.383-.667zm5.773 4.543a1.61 1.61 0 0 1-.156.355c-.062.113-.14.219-.23.313l2.875 2.875a5.772 5.772 0 0 0 1.433-2.493zm4.391 1.18a6.246 6.246 0 0 1-1.562 2.703l1.347 1.347a8.173 8.173 0 0 0 1.25-1.652 8.193 8.193 0 0 0 .805-1.906zm0 0" fill="#fff" fill-opacity=".588"/><path d="M959.908 614.974c-177.277 0-319.855 142.92-319.855 320.198 0 177.277 142.578 319.855 319.855 319.855 177.278 0 320.199-142.578 320.199-319.855 0-177.277-142.921-320.198-320.199-320.198zm0 160.099c88.639 0 160.1 71.46 160.1 160.099s-71.461 160.1-160.1 160.1c-88.638 0-159.755-71.461-159.755-160.1s71.117-160.1 159.755-160.1zm0 0" transform="rotate(.24) scale(.01137)" fill="url(#h)" stroke-width="11.339" stroke-linecap="round" stroke="#333"/><path d="M10.914 14.84c-.14 0-.285.113-.453.34-.57.797-.93 1.254-.91 1.82v.254c.015-.527.37-.977.91-1.734.168-.227.312-.34.453-.34.145 0 .285.113.457.34.566.796.91 1.253.91 1.82V17c0-.57-.344-1.023-.91-1.82-.172-.227-.312-.34-.457-.34zm0 0" fill="#fff" fill-opacity=".392"/><path d="M9.55 16.914V17zm0 1.547v.36c0 .25.204.452.454.452h1.82a.454.454 0 0 0 .457-.453v-.36c0 .25-.203.454-.457.454h-1.82a.453.453 0 0 1-.453-.453zm0 0M10.914 14.496c-.14 0-.285.117-.453.344-.57.797-.93 1.254-.91 1.82v.254c.015-.527.37-.98.91-1.734.168-.227.312-.34.453-.34.145 0 .285.113.457.34.566.797.91 1.25.91 1.82v-.344c0-.566-.344-1.02-.91-1.816-.172-.227-.312-.344-.457-.344zm0 0" fill-opacity=".235"/><path d="M10.914 14.84c-.14 0-.285.113-.453.34-.57.797-.93 1.254-.91 1.82v1.82c0 .25.203.453.453.453h1.82a.454.454 0 0 0 .457-.453V17c0-.57-.344-1.023-.91-1.82-.172-.227-.312-.34-.457-.34zm0 0" fill="none" stroke-width=".12892443" stroke-linecap="square" stroke-linejoin="bevel" stroke="#212121"/></svg>
